X: 32739
T: Polly The Lass
R: slip jig
M: 9/8
K: Dmajor
G|FAF ded c2A|BdB AFD E2G|FDD ded c2A|Bgf edc d2:|
g|f2d fag fed|c2A cec A2g|f2d fag fed|Bgf edc d2g|
f2d fag fed|c2A cec A2g|fdf ~a3 bag|fed ABc d2||

